src/lib/packages/icons/src/assets/filled/location-pin-heart.svg

<svg xmlns="http://www.w3.org/2000/svg" width="24" height="24" fill="none"><path fill="currentColor" d="M12 2.5c-4.687 0-8.5 3.813-8.5 8.5 0 4.983 4.629 8.041 7.692 10.064l.53.352a.5.5 0 0 0 .554 0l.53-.352c3.063-2.023 7.692-5.081 7.692-10.064C20.5 6.313 16.687 2.5 12 2.5Zm3.434 8.354C14.978 13.167 12 14.5 12 14.5s-2.978-1.333-3.434-3.646c-.28-1.419.332-2.847 1.887-2.854C11.611 7.995 12 9.143 12 9.143S12.389 7.995 13.547 8c1.559.007 2.167 1.435 1.887 2.854Z"/></svg>

<svg width="24" height="24" viewBox="0 0 24 24" fill="none" xmlns="http://www.w3.org/2000/svg">
<path d="M12 2.5C7.313 2.5 3.5 6.313 3.5 11C3.5 15.983 8.12902 19.041 11.192 21.064L11.722 21.416C11.806 21.472 11.903 21.5 11.999 21.5C12.095 21.5 12.192 21.472 12.276 21.416L12.806 21.064C15.869 19.041 20.498 15.983 20.498 11C20.5 6.313 16.687 2.5 12 2.5ZM15.434 10.854C14.978 13.167 12 14.5 12 14.5C12 14.5 9.02198 13.167 8.56598 10.854C8.28598 9.435 8.898 8.007 10.453 8C11.611 7.995 12 9.14307 12 9.14307C12 9.14307 12.389 7.995 13.547 8C15.106 8.007 15.714 9.435 15.434 10.854Z" fill="currentColor"/>
</svg>
